images/list-and-list-items.svg

<svg xmlns="http://www.w3.org/2000/svg" xmlns:xlink="http://www.w3.org/1999/xlink" viewBox="0 0 640 640" width="640" height="640"><defs><path d="M619.84 3.17c8.81.03 15.93 7.19 15.91 16-.34 123.54-1.3 478.19-1.64 601.73-.02 8.81-7.18 15.93-15.99 15.91-122.41-.34-473.68-1.29-596.09-1.62-8.81-.03-15.93-7.19-15.91-16C6.46 495.65 7.42 141 7.75 17.46c.03-8.81 7.19-15.93 16-15.91 122.41.34 473.68 1.29 596.09 1.62z" id="a"/><text id="b" x="116.56" y="147.91" font-size="31" font-family="Source Sans Pro" letter-spacing="0" alignment-baseline="before-edge" transform="translate(-81.717 -131.324)" style="line-height:100%" dominant-baseline="text-before-edge"><tspan x="116.56" dy="0em" alignment-baseline="before-edge" dominant-baseline="text-before-edge">QList</tspan></text><path d="M585.04 149.8c7.9 0 14.32 6.41 14.32 14.32v202.84c0 7.91-6.42 14.32-14.32 14.32H49.16c-7.91 0-14.32-6.41-14.32-14.32V164.12c0-7.91 6.41-14.32 14.32-14.32h535.88z" id="c"/><text id="d" x="129.1" y="183.44" font-size="17" font-family="Source Sans Pro" letter-spacing="0" alignment-baseline="before-edge" transform="translate(-66.402 -17.3)" style="line-height:100%" dominant-baseline="text-before-edge"><tspan x="129.1" dy="0em" alignment-baseline="before-edge" dominant-baseline="text-before-edge">QItem</tspan></text><path d="M162.51 204.49c1.44 0 2.6 1.16 2.6 2.6v84.67c0 1.44-1.16 2.6-2.6 2.6H65.3c-1.44 0-2.6-1.16-2.6-2.6v-84.67c0-1.44 1.16-2.6 2.6-2.6h97.21z" id="e"/><text id="f" x="145.82" y="233.61" font-size="14" font-family="Source Sans Pro" letter-spacing="0" alignment-baseline="before-edge" transform="translate(-63.296 -20.648)" style="line-height:100%" dominant-baseline="text-before-edge"><tspan x="145.82" dy="0em" alignment-baseline="before-edge" dominant-baseline="text-before-edge">QItemSide</tspan></text><path d="M450.45 204.49c3.93 0 7.11 3.18 7.11 7.11v149.54c0 3.93-3.18 7.11-7.11 7.11H184.8c-3.93 0-7.11-3.18-7.11-7.11V211.6c0-3.93 3.18-7.11 7.11-7.11h265.65z" id="g"/><path d="M569.43 204.49c1.44 0 2.6 1.16 2.6 2.6v126.27c0 1.44-1.16 2.6-2.6 2.6h-97.22c-1.43 0-2.6-1.16-2.6-2.6V207.09c0-1.44 1.17-2.6 2.6-2.6h97.22z" id="h"/><path d="M150.57 242.8c1.03 0 1.86.83 1.86 1.85v36c0 1.03-.83 1.86-1.86 1.86H81.11c-1.03 0-1.86-.83-1.86-1.86v-36c0-1.02.83-1.85 1.86-1.85h69.46z" id="i"/><text id="j" x="152.79" y="267.05" font-size="12" font-family="Source Sans Pro" letter-spacing="0" alignment-baseline="before-edge" transform="translate(-63.716 -12.398)" style="line-height:100%" dominant-baseline="text-before-edge"><tspan x="152.79" dy="0em" alignment-baseline="before-edge" dominant-baseline="text-before-edge">QItemTile</tspan></text><path d="M432.27 252.71c1.36 0 2.46 1.1 2.46 2.46v34.8c0 1.36-1.1 2.46-2.46 2.46H202.98c-1.36 0-2.46-1.1-2.46-2.46v-34.8c0-1.36 1.1-2.46 2.46-2.46h229.29z" id="k"/><path d="M433.17 307.18c1.36 0 2.46 1.1 2.46 2.46v34.8c0 1.36-1.1 2.46-2.46 2.46H203.88c-1.36 0-2.46-1.1-2.46-2.46v-34.8c0-1.36 1.1-2.46 2.46-2.46h229.29z" id="l"/><path d="M555.39 241.68c1.03 0 1.86.84 1.86 1.86v36c0 1.03-.83 1.86-1.86 1.86h-69.46c-1.02 0-1.86-.83-1.86-1.86v-36c0-1.02.84-1.86 1.86-1.86h69.46z" id="m"/><path d="M555.39 287.33c1.03 0 1.86.83 1.86 1.86v35.99c0 1.03-.83 1.86-1.86 1.86h-69.46c-1.02 0-1.86-.83-1.86-1.86v-35.99c0-1.03.84-1.86 1.86-1.86h69.46z" id="n"/><path d="M597.84 402.01c1.43 0 2.59 1.16 2.59 2.58v36.64c0 1.42-1.16 2.58-2.59 2.58H38.5c-1.43 0-2.59-1.16-2.59-2.58v-36.64c0-1.42 1.16-2.58 2.59-2.58h559.34z" id="o"/><path d="M597.84 497.67a2.59 2.59 0 0 1 2.59 2.59v36.63a2.59 2.59 0 0 1-2.59 2.59H38.5a2.59 2.59 0 0 1-2.59-2.59v-36.63a2.59 2.59 0 0 1 2.59-2.59h559.34z" id="p"/><text id="q" x="147.21" y="538.07" font-size="32" font-family="Alef" letter-spacing="0" alignment-baseline="before-edge" transform="rotate(90.172 236.163 644.45)" style="line-height:100%" dominant-baseline="text-before-edge"><tspan x="147.21" dy="0em" alignment-baseline="before-edge" dominant-baseline="text-before-edge">.....</tspan></text><path d="M596.24 81.33c1.72 0 3.12 1.39 3.12 3.11v44.15c0 1.72-1.4 3.12-3.12 3.12H37.96c-1.72 0-3.12-1.4-3.12-3.12V84.44c0-1.72 1.4-3.11 3.12-3.11h558.28z" id="r"/><text id="s" x="116.56" y="147.91" font-size="17" font-family="Source Sans Pro" letter-spacing="0" alignment-baseline="before-edge" transform="translate(-60.548 -52.905)" style="line-height:100%" dominant-baseline="text-before-edge"><tspan x="116.56" dy="0em" alignment-baseline="before-edge" dominant-baseline="text-before-edge">QListHeader</tspan></text><path d="M598.36 453.97c1.14 0 2.07.93 2.07 2.07v29.3c0 1.15-.93 2.07-2.07 2.07H37.98c-1.14 0-2.07-.92-2.07-2.07v-29.3c0-1.14.93-2.07 2.07-2.07h560.38z" id="t"/><text id="u" x="129.1" y="183.44" font-size="17" font-family="Source Sans Pro" letter-spacing="0" alignment-baseline="before-edge" transform="translate(-66.402 324.631)" style="line-height:100%" dominant-baseline="text-before-edge"><tspan x="129.1" dy="0em" alignment-baseline="before-edge" dominant-baseline="text-before-edge">QItem</tspan></text><text id="v" x="129.1" y="183.44" font-size="17" font-family="Source Sans Pro" letter-spacing="0" alignment-baseline="before-edge" transform="translate(-66.402 228.967)" style="line-height:100%" dominant-baseline="text-before-edge"><tspan x="129.1" dy="0em" alignment-baseline="before-edge" dominant-baseline="text-before-edge">QItem</tspan></text><text id="w" x="145.82" y="233.61" font-size="14" font-family="Source Sans Pro" letter-spacing="0" alignment-baseline="before-edge" transform="translate(343.968 -20.648)" style="line-height:100%" dominant-baseline="text-before-edge"><tspan x="145.82" dy="0em" alignment-baseline="before-edge" dominant-baseline="text-before-edge">QItemSide</tspan></text><text id="x" x="152.79" y="267.05" font-size="12" font-family="Source Sans Pro" letter-spacing="0" alignment-baseline="before-edge" transform="translate(343.344 -12.398)" style="line-height:100%" dominant-baseline="text-before-edge"><tspan x="152.79" dy="0em" alignment-baseline="before-edge" dominant-baseline="text-before-edge">QItemTile</tspan></text><text id="y" x="152.79" y="267.05" font-size="12" font-family="Source Sans Pro" letter-spacing="0" alignment-baseline="before-edge" transform="translate(343.344 32.384)" style="line-height:100%" dominant-baseline="text-before-edge"><tspan x="152.79" dy="0em" alignment-baseline="before-edge" dominant-baseline="text-before-edge">QItemTile</tspan></text><text id="z" x="152.79" y="267.05" font-size="12" font-family="Source Sans Pro" letter-spacing="0" alignment-baseline="before-edge" transform="translate(140.306 -4.648)" style="line-height:100%" dominant-baseline="text-before-edge"><tspan x="152.79" dy="0em" alignment-baseline="before-edge" dominant-baseline="text-before-edge">QItemTile</tspan></text><text id="A" x="152.79" y="267.05" font-size="12" font-family="Source Sans Pro" letter-spacing="0" alignment-baseline="before-edge" transform="translate(139.78 49.925)" style="line-height:100%" dominant-baseline="text-before-edge"><tspan x="152.79" dy="0em" alignment-baseline="before-edge" dominant-baseline="text-before-edge">QItemTile</tspan></text><text id="B" x="145.82" y="233.61" font-size="14" font-family="Source Sans Pro" letter-spacing="0" alignment-baseline="before-edge" transform="translate(140.426 -16.236)" style="line-height:100%" dominant-baseline="text-before-edge"><tspan x="145.82" dy="0em" alignment-baseline="before-edge" dominant-baseline="text-before-edge">QItemMain</tspan></text><text id="C" x="129.1" y="183.44" font-size="15" font-family="Source Sans Pro" letter-spacing="0" alignment-baseline="before-edge" transform="translate(-66.402 277.749)" style="line-height:100%" dominant-baseline="text-before-edge"><tspan x="129.1" dy="0em" alignment-baseline="before-edge" dominant-baseline="text-before-edge">QItemSeparator</tspan></text></defs><use xlink:href="#a" opacity=".43" fill="#027be3"/><use xlink:href="#b" fill="#fff"/><use xlink:href="#c" opacity=".46" fill="#027be3"/><use xlink:href="#d" fill="#fff"/><use xlink:href="#e" opacity=".5" fill="#027be3"/><use xlink:href="#f" fill="#fff"/><use xlink:href="#g" opacity=".5" fill="#027be3"/><use xlink:href="#h" opacity=".5" fill="#027be3"/><use xlink:href="#i" fill="#027be3"/><use xlink:href="#j" fill="#fff"/><use xlink:href="#k" fill="#027be3"/><use xlink:href="#l" fill="#027be3"/><use xlink:href="#m" fill="#027be3"/><use xlink:href="#n" fill="#027be3"/><use xlink:href="#o" opacity=".46" fill="#027be3"/><use xlink:href="#p" opacity=".46" fill="#027be3"/><use xlink:href="#q" opacity=".5" fill="#027be3"/><use xlink:href="#r" opacity=".46" fill="#027be3"/><use xlink:href="#s" fill="#fff"/><use xlink:href="#t" opacity=".46" fill="#027be3"/><use xlink:href="#u" fill="#fff"/><use xlink:href="#v" fill="#fff"/><use xlink:href="#w" fill="#fff"/><use xlink:href="#x" fill="#fff"/><use xlink:href="#y" fill="#fff"/><use xlink:href="#z" fill="#fff"/><use xlink:href="#A" fill="#fff"/><use xlink:href="#B" fill="#fff"/><use xlink:href="#C" fill="#fff"/></svg>

<?xml version="1.0" encoding="UTF-8" standalone="no"?>
<!DOCTYPE svg PUBLIC "-//W3C//DTD SVG 1.1//EN" "http://www.w3.org/Graphics/SVG/1.1/DTD/svg11.dtd">
<svg version="1.1" xmlns="http://www.w3.org/2000/svg" xmlns:xlink="http://www.w3.org/1999/xlink" preserveAspectRatio="xMidYMid meet" viewBox="0 0 640 640" width="640" height="640"><defs><path d="M619.84 3.17C628.65 3.2 635.77 10.36 635.75 19.17C635.41 142.71 634.45 497.36 634.11 620.9C634.09 629.71 626.93 636.83 618.12 636.81C495.71 636.47 144.44 635.52 22.03 635.19C13.22 635.16 6.1 628 6.12 619.19C6.46 495.65 7.42 141 7.75 17.46C7.78 8.65 14.94 1.53 23.75 1.55C146.16 1.89 497.43 2.84 619.84 3.17Z" id="d27TZQxuDS"></path><text id="d9yo3I8sK" x="116.56" y="147.91" font-size="31" font-family="Source Sans Pro" font-weight="normal" font-style="normal" letter-spacing="0" alignment-baseline="before-edge" transform="matrix(1 0 0 1 -81.71710010848608 -131.32352941176475)" style="line-height:100%" xml:space="preserve" dominant-baseline="text-before-edge"><tspan x="116.56" dy="0em" alignment-baseline="before-edge" dominant-baseline="text-before-edge" text-anchor="start">QList</tspan></text><path d="M585.04 149.8C592.94 149.8 599.36 156.21 599.36 164.12C599.36 207.55 599.36 323.53 599.36 366.96C599.36 374.87 592.94 381.28 585.04 381.28C475 381.28 159.2 381.28 49.16 381.28C41.25 381.28 34.84 374.87 34.84 366.96C34.84 323.53 34.84 207.55 34.84 164.12C34.84 156.21 41.25 149.8 49.16 149.8C159.2 149.8 475 149.8 585.04 149.8Z" id="j1tbUdNbYt"></path><text id="a6AeSxaxwh" x="129.1" y="183.44" font-size="17" font-family="Source Sans Pro" font-weight="normal" font-style="normal" letter-spacing="0" alignment-baseline="before-edge" transform="matrix(1 0 0 1 -66.40241911581109 -17.299903567984614)" style="line-height:100%" xml:space="preserve" dominant-baseline="text-before-edge"><tspan x="129.1" dy="0em" alignment-baseline="before-edge" dominant-baseline="text-before-edge" text-anchor="start">QItem</tspan></text><path d="M162.51 204.49C163.95 204.49 165.11 205.65 165.11 207.09C165.11 224.54 165.11 274.31 165.11 291.76C165.11 293.2 163.95 294.36 162.51 294.36C142.55 294.36 85.26 294.36 65.3 294.36C63.86 294.36 62.7 293.2 62.7 291.76C62.7 274.31 62.7 224.54 62.7 207.09C62.7 205.65 63.86 204.49 65.3 204.49C85.26 204.49 142.55 204.49 162.51 204.49Z" id="a4A70uCoiS"></path><text id="a2N05DxELt" x="145.82" y="233.61" font-size="14" font-family="Source Sans Pro" font-weight="normal" font-style="normal" letter-spacing="0" alignment-baseline="before-edge" transform="matrix(1 0 0 1 -63.29560559122092 -20.647540983606575)" style="line-height:100%" xml:space="preserve" dominant-baseline="text-before-edge"><tspan x="145.82" dy="0em" alignment-baseline="before-edge" dominant-baseline="text-before-edge" text-anchor="start">QItemSide</tspan></text><path d="M450.45 204.49C454.38 204.49 457.56 207.67 457.56 211.6C457.56 242.93 457.56 329.81 457.56 361.14C457.56 365.07 454.38 368.25 450.45 368.25C395.9 368.25 239.35 368.25 184.8 368.25C180.87 368.25 177.69 365.07 177.69 361.14C177.69 329.81 177.69 242.93 177.69 211.6C177.69 207.67 180.87 204.49 184.8 204.49C239.35 204.49 395.9 204.49 450.45 204.49Z" id="f5BGyn8UJK"></path><path d="M569.43 204.49C570.87 204.49 572.03 205.65 572.03 207.09C572.03 232.86 572.03 307.59 572.03 333.36C572.03 334.8 570.87 335.96 569.43 335.96C549.47 335.96 492.18 335.96 472.21 335.96C470.78 335.96 469.61 334.8 469.61 333.36C469.61 307.59 469.61 232.86 469.61 207.09C469.61 205.65 470.78 204.49 472.21 204.49C492.18 204.49 549.47 204.49 569.43 204.49Z" id="d102kPp5uo"></path><path d="M150.57 242.8C151.6 242.8 152.43 243.63 152.43 244.65C152.43 252.22 152.43 273.08 152.43 280.65C152.43 281.68 151.6 282.51 150.57 282.51C136.31 282.51 95.38 282.51 81.11 282.51C80.08 282.51 79.25 281.68 79.25 280.65C79.25 273.08 79.25 252.22 79.25 244.65C79.25 243.63 80.08 242.8 81.11 242.8C95.38 242.8 136.31 242.8 150.57 242.8Z" id="b3KQgIDiEv"></path><text id="c11GoWiZYH" x="152.79" y="267.05" font-size="12" font-family="Source Sans Pro" font-weight="normal" font-style="normal" letter-spacing="0" alignment-baseline="before-edge" transform="matrix(1 0 0 1 -63.71594370597501 -12.397540983606461)" style="line-height:100%" xml:space="preserve" dominant-baseline="text-before-edge"><tspan x="152.79" dy="0em" alignment-baseline="before-edge" dominant-baseline="text-before-edge" text-anchor="start">QItemTile</tspan></text><path d="M432.27 252.71C433.63 252.71 434.73 253.81 434.73 255.17C434.73 262.62 434.73 282.52 434.73 289.97C434.73 291.33 433.63 292.43 432.27 292.43C385.92 292.43 249.33 292.43 202.98 292.43C201.62 292.43 200.52 291.33 200.52 289.97C200.52 282.52 200.52 262.62 200.52 255.17C200.52 253.81 201.62 252.71 202.98 252.71C249.33 252.71 385.92 252.71 432.27 252.71Z" id="d1BCS7in0t"></path><path d="M433.17 307.18C434.53 307.18 435.63 308.28 435.63 309.64C435.63 317.09 435.63 336.99 435.63 344.44C435.63 345.8 434.53 346.9 433.17 346.9C386.82 346.9 250.23 346.9 203.88 346.9C202.52 346.9 201.42 345.8 201.42 344.44C201.42 336.99 201.42 317.09 201.42 309.64C201.42 308.28 202.52 307.18 203.88 307.18C250.23 307.18 386.82 307.18 433.17 307.18Z" id="ao7JnL82f"></path><path d="M555.39 241.68C556.42 241.68 557.25 242.52 557.25 243.54C557.25 251.11 557.25 271.97 557.25 279.54C557.25 280.57 556.42 281.4 555.39 281.4C541.13 281.4 500.2 281.4 485.93 281.4C484.91 281.4 484.07 280.57 484.07 279.54C484.07 271.97 484.07 251.11 484.07 243.54C484.07 242.52 484.91 241.68 485.93 241.68C500.2 241.68 541.13 241.68 555.39 241.68Z" id="ccMoFxfn1"></path><path d="M555.39 287.33C556.42 287.33 557.25 288.16 557.25 289.19C557.25 296.76 557.25 317.61 557.25 325.18C557.25 326.21 556.42 327.04 555.39 327.04C541.13 327.04 500.2 327.04 485.93 327.04C484.91 327.04 484.07 326.21 484.07 325.18C484.07 317.61 484.07 296.76 484.07 289.19C484.07 288.16 484.91 287.33 485.93 287.33C500.2 287.33 541.13 287.33 555.39 287.33Z" id="f1Mmu8IA8"></path><path d="M597.84 402.01C599.27 402.01 600.43 403.17 600.43 404.59C600.43 412.44 600.43 433.38 600.43 441.23C600.43 442.65 599.27 443.81 597.84 443.81C485.46 443.81 150.89 443.81 38.5 443.81C37.07 443.81 35.91 442.65 35.91 441.23C35.91 433.38 35.91 412.44 35.91 404.59C35.91 403.17 37.07 402.01 38.5 402.01C150.89 402.01 485.46 402.01 597.84 402.01Z" id="bVSmznhmk"></path><path d="M597.84 497.67C599.27 497.67 600.43 498.83 600.43 500.26C600.43 508.1 600.43 529.05 600.43 536.89C600.43 538.32 599.27 539.48 597.84 539.48C485.46 539.48 150.89 539.48 38.5 539.48C37.07 539.48 35.91 538.32 35.91 536.89C35.91 529.05 35.91 508.1 35.91 500.26C35.91 498.83 37.07 497.67 38.5 497.67C150.89 497.67 485.46 497.67 597.84 497.67Z" id="b2ulcwnCD9"></path><text id="b70fNknU5Z" x="147.21" y="538.07" font-size="32" font-family="Alef" font-weight="normal" font-style="normal" letter-spacing="0" alignment-baseline="before-edge" transform="matrix(-0.003002725666870752 0.9999954918091228 -0.9999954918091228 -0.003002725666870752 881.3199459028889 410.22303504522324)" style="line-height:100%" xml:space="preserve" dominant-baseline="text-before-edge"><tspan x="147.21" dy="0em" alignment-baseline="before-edge" dominant-baseline="text-before-edge" text-anchor="start">.....</tspan></text><path d="M596.24 81.33C597.96 81.33 599.36 82.72 599.36 84.44C599.36 93.9 599.36 119.14 599.36 128.59C599.36 130.31 597.96 131.71 596.24 131.71C483.96 131.71 150.24 131.71 37.96 131.71C36.24 131.71 34.84 130.31 34.84 128.59C34.84 119.14 34.84 93.9 34.84 84.44C34.84 82.72 36.24 81.33 37.96 81.33C150.24 81.33 483.96 81.33 596.24 81.33Z" id="ctIDvXQ6n"></path><text id="a1FjPlgg3w" x="116.56" y="147.91" font-size="17" font-family="Source Sans Pro" font-weight="normal" font-style="normal" letter-spacing="0" alignment-baseline="before-edge" transform="matrix(1 0 0 1 -60.5475229026037 -52.904613809830096)" style="line-height:100%" xml:space="preserve" dominant-baseline="text-before-edge"><tspan x="116.56" dy="0em" alignment-baseline="before-edge" dominant-baseline="text-before-edge" text-anchor="start">QListHeader</tspan></text><path d="M598.36 453.97C599.5 453.97 600.43 454.9 600.43 456.04C600.43 462.31 600.43 479.07 600.43 485.34C600.43 486.49 599.5 487.41 598.36 487.41C485.87 487.41 150.47 487.41 37.98 487.41C36.84 487.41 35.91 486.49 35.91 485.34C35.91 479.07 35.91 462.31 35.91 456.04C35.91 454.9 36.84 453.97 37.98 453.97C150.47 453.97 485.87 453.97 598.36 453.97Z" id="d1BgEIwAbx"></path><text id="b12kdgFTov" x="129.1" y="183.44" font-size="17" font-family="Source Sans Pro" font-weight="normal" font-style="normal" letter-spacing="0" alignment-baseline="before-edge" transform="matrix(1 0 0 1 -66.40241911581109 324.63114754098365)" style="line-height:100%" xml:space="preserve" dominant-baseline="text-before-edge"><tspan x="129.1" dy="0em" alignment-baseline="before-edge" dominant-baseline="text-before-edge" text-anchor="start">QItem</tspan></text><text id="a8XxG4zs2" x="129.1" y="183.44" font-size="17" font-family="Source Sans Pro" font-weight="normal" font-style="normal" letter-spacing="0" alignment-baseline="before-edge" transform="matrix(1 0 0 1 -66.40241911581109 228.96721311475426)" style="line-height:100%" xml:space="preserve" dominant-baseline="text-before-edge"><tspan x="129.1" dy="0em" alignment-baseline="before-edge" dominant-baseline="text-before-edge" text-anchor="start">QItem</tspan></text><text id="e1iW6PfU58" x="145.82" y="233.61" font-size="14" font-family="Source Sans Pro" font-weight="normal" font-style="normal" letter-spacing="0" alignment-baseline="before-edge" transform="matrix(1 0 0 1 343.9678723179846 -20.647540983606575)" style="line-height:100%" xml:space="preserve" dominant-baseline="text-before-edge"><tspan x="145.82" dy="0em" alignment-baseline="before-edge" dominant-baseline="text-before-edge" text-anchor="start">QItemSide</tspan></text><text id="b3MI1YVcs" x="152.79" y="267.05" font-size="12" font-family="Source Sans Pro" font-weight="normal" font-style="normal" letter-spacing="0" alignment-baseline="before-edge" transform="matrix(1 0 0 1 343.3444092032305 -12.397540983606461)" style="line-height:100%" xml:space="preserve" dominant-baseline="text-before-edge"><tspan x="152.79" dy="0em" alignment-baseline="before-edge" dominant-baseline="text-before-edge" text-anchor="start">QItemTile</tspan></text><text id="b4Sc0huiu" x="152.79" y="267.05" font-size="12" font-family="Source Sans Pro" font-weight="normal" font-style="normal" letter-spacing="0" alignment-baseline="before-edge" transform="matrix(1 0 0 1 343.3444092032305 32.38404050144658)" style="line-height:100%" xml:space="preserve" dominant-baseline="text-before-edge"><tspan x="152.79" dy="0em" alignment-baseline="before-edge" dominant-baseline="text-before-edge" text-anchor="start">QItemTile</tspan></text><text id="f2HLYd85H" x="152.79" y="267.05" font-size="12" font-family="Source Sans Pro" font-weight="normal" font-style="normal" letter-spacing="0" alignment-baseline="before-edge" transform="matrix(1 0 0 1 140.30602097396343 -4.647540983606461)" style="line-height:100%" xml:space="preserve" dominant-baseline="text-before-edge"><tspan x="152.79" dy="0em" alignment-baseline="before-edge" dominant-baseline="text-before-edge" text-anchor="start">QItemTile</tspan></text><text id="b71nyt0Z8" x="152.79" y="267.05" font-size="12" font-family="Source Sans Pro" font-weight="normal" font-style="normal" letter-spacing="0" alignment-baseline="before-edge" transform="matrix(1 0 0 1 139.78016137295077 49.92469780132501)" style="line-height:100%" xml:space="preserve" dominant-baseline="text-before-edge"><tspan x="152.79" dy="0em" alignment-baseline="before-edge" dominant-baseline="text-before-edge" text-anchor="start">QItemTile</tspan></text><text id="g3y11FNYCT" x="145.82" y="233.61" font-size="14" font-family="Source Sans Pro" font-weight="normal" font-style="normal" letter-spacing="0" alignment-baseline="before-edge" transform="matrix(1 0 0 1 140.4257511149953 -16.2357762777242)" style="line-height:100%" xml:space="preserve" dominant-baseline="text-before-edge"><tspan x="145.82" dy="0em" alignment-baseline="before-edge" dominant-baseline="text-before-edge" text-anchor="start">QItemMain</tspan></text><text id="aayq0AzIE" x="129.1" y="183.44" font-size="15" font-family="Source Sans Pro" font-weight="normal" font-style="normal" letter-spacing="0" alignment-baseline="before-edge" transform="matrix(1 0 0 1 -66.40241911581109 277.74855567062974)" style="line-height:100%" xml:space="preserve" dominant-baseline="text-before-edge"><tspan x="129.1" dy="0em" alignment-baseline="before-edge" dominant-baseline="text-before-edge" text-anchor="start">QItemSeparator</tspan></text></defs><g><g><g><use xlink:href="#d27TZQxuDS" opacity="0.43" fill="#027be3" fill-opacity="1"></use></g><g id="bucl61WMG"><use xlink:href="#d9yo3I8sK" opacity="1" fill="#ffffff" fill-opacity="1"></use></g><g><use xlink:href="#j1tbUdNbYt" opacity="0.46" fill="#027be3" fill-opacity="1"></use></g><g id="fjY9qJHUN"><use xlink:href="#a6AeSxaxwh" opacity="1" fill="#ffffff" fill-opacity="1"></use></g><g><use xlink:href="#a4A70uCoiS" opacity="0.5" fill="#027be3" fill-opacity="1"></use></g><g id="a6mxrE9pwB"><use xlink:href="#a2N05DxELt" opacity="1" fill="#ffffff" fill-opacity="1"></use></g><g><use xlink:href="#f5BGyn8UJK" opacity="0.5" fill="#027be3" fill-opacity="1"></use></g><g><use xlink:href="#d102kPp5uo" opacity="0.5" fill="#027be3" fill-opacity="1"></use></g><g><use xlink:href="#b3KQgIDiEv" opacity="1" fill="#027be3" fill-opacity="1"></use></g><g id="a7ue3mSXFf"><use xlink:href="#c11GoWiZYH" opacity="1" fill="#ffffff" fill-opacity="1"></use></g><g><use xlink:href="#d1BCS7in0t" opacity="1" fill="#027be3" fill-opacity="1"></use></g><g><use xlink:href="#ao7JnL82f" opacity="1" fill="#027be3" fill-opacity="1"></use></g><g><use xlink:href="#ccMoFxfn1" opacity="1" fill="#027be3" fill-opacity="1"></use></g><g><use xlink:href="#f1Mmu8IA8" opacity="1" fill="#027be3" fill-opacity="1"></use></g><g><use xlink:href="#bVSmznhmk" opacity="0.46" fill="#027be3" fill-opacity="1"></use></g><g><use xlink:href="#b2ulcwnCD9" opacity="0.46" fill="#027be3" fill-opacity="1"></use></g><g id="e34Uo6EIQm"><use xlink:href="#b70fNknU5Z" opacity="0.5" fill="#027be3" fill-opacity="1"></use></g><g><use xlink:href="#ctIDvXQ6n" opacity="0.46" fill="#027be3" fill-opacity="1"></use></g><g id="a31eDVmcAN"><use xlink:href="#a1FjPlgg3w" opacity="1" fill="#ffffff" fill-opacity="1"></use></g><g><use xlink:href="#d1BgEIwAbx" opacity="0.46" fill="#027be3" fill-opacity="1"></use></g><g id="a1P9lHfgh7"><use xlink:href="#b12kdgFTov" opacity="1" fill="#ffffff" fill-opacity="1"></use></g><g id="aEgzSmxZd"><use xlink:href="#a8XxG4zs2" opacity="1" fill="#ffffff" fill-opacity="1"></use></g><g id="g3k75aBAvR"><use xlink:href="#e1iW6PfU58" opacity="1" fill="#ffffff" fill-opacity="1"></use></g><g id="f6j92ra5yG"><use xlink:href="#b3MI1YVcs" opacity="1" fill="#ffffff" fill-opacity="1"></use></g><g id="b2dsRGDQS3"><use xlink:href="#b4Sc0huiu" opacity="1" fill="#ffffff" fill-opacity="1"></use></g><g id="b5k4SaLq"><use xlink:href="#f2HLYd85H" opacity="1" fill="#ffffff" fill-opacity="1"></use></g><g id="b1p5wo34tr"><use xlink:href="#b71nyt0Z8" opacity="1" fill="#ffffff" fill-opacity="1"></use></g><g id="d1KEZt4AA4"><use xlink:href="#g3y11FNYCT" opacity="1" fill="#ffffff" fill-opacity="1"></use></g><g id="aFrB9aCb8"><use xlink:href="#aayq0AzIE" opacity="1" fill="#ffffff" fill-opacity="1"></use></g></g></g></svg>
